X: 194
T: Old Nectar
T: Longways &c.
%R: jig
B: Daniel Wright "Wright's Compleat Collection of Celebrated Country Dances" 1740 p.97
S: http://library.efdss.org/cgi-bin/dancebooks.cgi
Z: 2014 John Chambers <jc:trillian.mit.edu>
N: The 2nd strain has initial repeat but no final repeat; fixed to match the dance phrasing.
M: 6/8
L: 1/8
K: C
% - - - - - - - - - - - - - - - - - - - - - - - - -
c |\
eef gec | cde f2f/e/ |\
dgf e>dc | eef g2g |\
ge d/c/ c>de | f>g f/e/ d2d |
e>ag ^fdg | B>cA G2 :: G |\
dde fff | gf/e/d ^cAa |\
agf gea | f>ed dd d/e/ |\
ff/e/d/c/ B2G |
c>cd e2e |\
cBA def | f/e/d/c/B/A/ A2 A/B/ |\
ccc f2 f/e/ | fAd B2d |\
gfe ABc | c>dB c2 :|
% - - - - - - - - - - - - - - - - - - - - - - - - -
%%begintext align
%% The 1st Cu. take hands, sides with the 2d Cu.
%% and turn each round, then all four take hands and
%% go half round .| the 2d Cu. do the same with
%% the 1st Cu. :| then the 1st and 2d Man change places
%% with their Partners, then right hands and left
%% half round and turn S. .| then 1st Cu. sett a cross
%% to the 3d Cu. all four turn single, then the 1st
%% Cu. lead up to the top and cast off :|
%%endtext
% - - - - - - - - - - - - - - - - - - - - - - - - -
%%sep 2 4 300
